X:1
T:DANS LE PRISON DE LONDRES
M:2/4
L:1/8
K:G
 E2| B,E EF| D2 DF| F/2F/2 F/2F/2 B,G| FG A/2B/2 A/2G/2| F z E2| B,E EF|\
 D2 D3/2 G/2| FE D2| E2 B,3/2 ^C/2| DE FG| E2||

